media/images/instagram.svg

<svg width="22" height="22" viewBox="0 0 22 22" fill="none" xmlns="http://www.w3.org/2000/svg">
<g clip-path="url(#clip0)">
<path d="M15.125 0H6.875C5.05164 0 3.30295 0.724328 2.01364 2.01364C0.724328 3.30295 0 5.05164 0 6.875L0 15.125C0 16.9484 0.724328 18.697 2.01364 19.9864C3.30295 21.2757 5.05164 22 6.875 22H15.125C16.9484 22 18.697 21.2757 19.9864 19.9864C21.2757 18.697 22 16.9484 22 15.125V6.875C22 5.05164 21.2757 3.30295 19.9864 2.01364C18.697 0.724328 16.9484 0 15.125 0V0ZM19.9375 15.125C19.9375 17.7787 17.7787 19.9375 15.125 19.9375H6.875C4.22125 19.9375 2.0625 17.7787 2.0625 15.125V6.875C2.0625 4.22125 4.22125 2.0625 6.875 2.0625H15.125C17.7787 2.0625 19.9375 4.22125 19.9375 6.875V15.125Z" fill="url(#paint0_linear)"/>
<path d="M11 5.5C9.54131 5.5 8.14236 6.07946 7.11091 7.11091C6.07946 8.14236 5.5 9.54131 5.5 11C5.5 12.4587 6.07946 13.8576 7.11091 14.8891C8.14236 15.9205 9.54131 16.5 11 16.5C12.4587 16.5 13.8576 15.9205 14.8891 14.8891C15.9205 13.8576 16.5 12.4587 16.5 11C16.5 9.54131 15.9205 8.14236 14.8891 7.11091C13.8576 6.07946 12.4587 5.5 11 5.5ZM11 14.4375C10.0887 14.4364 9.21495 14.0739 8.57053 13.4295C7.92611 12.7851 7.56359 11.9113 7.5625 11C7.5625 9.10388 9.10525 7.5625 11 7.5625C12.8947 7.5625 14.4375 9.10388 14.4375 11C14.4375 12.8947 12.8947 14.4375 11 14.4375Z" fill="url(#paint1_linear)"/>
<path d="M16.9125 5.82036C17.3172 5.82036 17.6454 5.49225 17.6454 5.08749C17.6454 4.68273 17.3172 4.35461 16.9125 4.35461C16.5077 4.35461 16.1796 4.68273 16.1796 5.08749C16.1796 5.49225 16.5077 5.82036 16.9125 5.82036Z" fill="url(#paint2_linear)"/>
</g>
<defs>
<linearGradient id="paint0_linear" x1="2.01369" y1="19.9863" x2="19.9863" y2="2.01369" gradientUnits="userSpaceOnUse">
<stop stop-color="#FFC107"/>
<stop offset="0.5074" stop-color="#F44336"/>
<stop offset="0.9901" stop-color="#9C27B0"/>
</linearGradient>
<linearGradient id="paint1_linear" x1="7.11095" y1="14.889" x2="14.889" y2="7.11095" gradientUnits="userSpaceOnUse">
<stop stop-color="#FFC107"/>
<stop offset="0.5074" stop-color="#F44336"/>
<stop offset="0.9901" stop-color="#9C27B0"/>
</linearGradient>
<linearGradient id="paint2_linear" x1="16.394" y1="5.606" x2="17.431" y2="4.56897" gradientUnits="userSpaceOnUse">
<stop stop-color="#FFC107"/>
<stop offset="0.5074" stop-color="#F44336"/>
<stop offset="0.9901" stop-color="#9C27B0"/>
</linearGradient>
<clipPath id="clip0">
<rect width="22" height="22" fill="white"/>
</clipPath>
</defs>
</svg>

<svg width="22" height="22" fill="none" xmlns="http://www.w3.org/2000/svg"><g clip-path="url(#a)"><path d="M15.125 0h-8.25A6.875 6.875 0 0 0 0 6.875v8.25A6.875 6.875 0 0 0 6.875 22h8.25A6.875 6.875 0 0 0 22 15.125v-8.25A6.875 6.875 0 0 0 15.125 0zm4.813 15.125a4.818 4.818 0 0 1-4.813 4.813h-8.25a4.818 4.818 0 0 1-4.813-4.813v-8.25a4.818 4.818 0 0 1 4.813-4.813h8.25a4.818 4.818 0 0 1 4.813 4.813v8.25z" fill="url(#b)"/><path d="M11 5.5a5.5 5.5 0 1 0 0 11 5.5 5.5 0 0 0 0-11zm0 8.938A3.442 3.442 0 0 1 7.562 11 3.441 3.441 0 0 1 11 7.562 3.441 3.441 0 0 1 14.438 11 3.442 3.442 0 0 1 11 14.438z" fill="url(#c)"/><path d="M16.913 5.82a.733.733 0 1 0 0-1.465.733.733 0 0 0 0 1.465z" fill="url(#d)"/></g><defs><linearGradient id="b" x1="2.014" y1="19.986" x2="19.986" y2="2.014" gradientUnits="userSpaceOnUse"><stop stop-color="#FFC107"/><stop offset=".507" stop-color="#F44336"/><stop offset=".99" stop-color="#9C27B0"/></linearGradient><linearGradient id="c" x1="7.111" y1="14.889" x2="14.889" y2="7.111" gradientUnits="userSpaceOnUse"><stop stop-color="#FFC107"/><stop offset=".507" stop-color="#F44336"/><stop offset=".99" stop-color="#9C27B0"/></linearGradient><linearGradient id="d" x1="16.394" y1="5.606" x2="17.431" y2="4.569" gradientUnits="userSpaceOnUse"><stop stop-color="#FFC107"/><stop offset=".507" stop-color="#F44336"/><stop offset=".99" stop-color="#9C27B0"/></linearGradient><clipPath id="a"><path fill="#fff" d="M0 0h22v22H0z"/></clipPath></defs></svg>
